icons/puppet.svg

<svg xmlns="http://www.w3.org/2000/svg" viewBox="0 0 18.18 28"><g data-name="Calque 2"><path d="M18.18 9.82h-6.39L8.36 6.39V0H0v8.36h6.39l3.42 3.42v4.43l-3.43 3.43H0V28h8.36v-6.39l3.43-3.43h6.39zm-15.39-7h2.79v2.75H2.79zM5.57 25.2H2.79v-2.78h2.79z" fill="#fbc02d" data-name="Calque 1"/></g></svg>

<svg xmlns="http://www.w3.org/2000/svg" viewBox="0 0 18.18 28"><defs><style>.cls-1{fill:#fbc02d;}</style></defs><title>puppet</title><g id="Calque_2" data-name="Calque 2"><g id="Calque_1-2" data-name="Calque 1"><path class="cls-1" d="M18.18,9.82H11.79L8.36,6.39V0H0V8.36H6.39l3.42,3.42h0v4.43h0L6.38,19.64H0V28H8.36V21.61h0l3.43-3.43h6.39Zm-15.39-7H5.58V5.57H2.79ZM5.57,25.2H2.79V22.42H5.58Z"/></g></g></svg>
